!!!OTL: 571b. Herzeleid.
!!!ARE: Europa, Mitteleuropa, Deutschland, Westfalen, Herfurt; Hessen
!!!SCT: E0571A
!!!TXL: @@DE
!!!YEM: Copyright 1995, estate of Helmut Schaffrath.
**kern	**text
*ICvox	*
*M3/4	*
*k[f#c#]	*
*D:	*
!LO:TX:a:t=Mäßig bewegt.	!
!LO:TX:a:t=Aus Weſtfalen (Herfurt), dem Dillkreis und Kreis Wetʒlar 1880-90.	!
{8dL	Hier
8eJ	.
=1	=1
4f#	ſieh
4.f#	ich
8f#	am
=2	=2
8f#L	Ber-
8aJ	.
4a}	-ge
{8f#L	und's
8aJ	.
=3	=3
4a	Herʒ
4g	wird
8eL	mir
8gJ	.
=4	=4
4f#	bang,
4r}	.
{8dL	Wie
8eJ	.
=5	=5
4f#	wird
4.f#	mir
8f#	nach'm
=6	=6
8f#L	Lieb-
8aJ	.
4a}	-chen
{8f#L	die
8aJ	.
=7	=7
4a	Ʒeit
4g	ja
8eL	ſo
8gJ	.
=8	=8
4f#	lang.
4r}	.
{4f#	Die
=9	=9
8eL	Vög-
8g#J	.
8bL	-lein
8ddJ	.
4dd	ſie
=10	=10
8cc#L	ſin-
8bJ	.
4a}	-gen,
{4e	der
=11	=11
8eL	Kuk-
8g#J	.
8bL	-kuk
8ddJ	.
4dd	der
=12	=12
(4.cc#;	ſchreit,
8b)}	.
{4a	Hier
=13	=13
4dd	ſteh
4cc#	ich
8.b	ſo
16b	ver-
=14	=14
4b	-laſ-
4a}	-ſen,
{8f#L	hab
8aJ	.
=15	=15
4a	nir-
4g	-gends
(8eL	kein
8gJ)	.
=16	=16
(<8f#L	Freud,
8aJ	.
4dd)}	.
{4a	Hier
=17	=17
4dd	ſteh
4cc#	ich
8.b	ſo
16b	ver-
=18	=18
4b	-laſ-
4a}	-ſen,
{8f#L	hab
8aJ	.
=19	=19
4a	nir-
4g	-gends
(8eL	kein
8gJ)	.
=20	=20
2f#}	Freud.
==	==
!!!AGN: Liebes - Lied
!!!ONB: ESAC (Essen Associative Code) Database: ERK1
!!!AMT: simple triple
!!!AIN: vox
!!!EED: Helmut Schaffrath
!!!EEV: 1.0
!!!RDF**kern: < = below
!!!GTL: Liebeslieder [Neuere (aus dem 18. bis 19. Jahrh.) - Liebeslust]
!!!URL-scan: https://rosdok.uni-rostock.de/mcrviewer/recordIdentifier/rosdok_ppn745177662/iview2/phys_0402.iview2?x=-128.77276441889308&y=294.0262268697843&scale=0.5870222003877485&rotation=0&layout=singlePageLayout
!!!ENC: Anna Maria Matuszewska
!!!EEV: 2024/11/12
*-	*-
